X: 080124
T: Hogan's Whistle
S: Jimmy Hogan
Z: B.Black
R: reel
M: 4/4
L: 1/8
K: Ador
Bd | eAAB c2 BA | G2 BG dGBG | eAAB c2 BA |\
egdg eABd |
eAAB c2 BA | G2 BG dGBG | eAAB c2 BA |\
egdg eA A2 ||
(3Bcd ef gbge | d2 BG dGBG | (3Bcd ef gbag |\
egdg eA A2 |
(3Bcd ef gbge | d2 BG dGBG | (3Bcd ef gbag |\
egdg eA A2 ||
